badges/pandora-light.svg

<svg width="116" height="40" viewBox="0 0 116 40" fill="none" xmlns="http://www.w3.org/2000/svg">
<rect x="0.5" y="0.5" width="115" height="39" rx="4.5" fill="white"/>
<path d="M10.5247 29.4753C8.68315 27.6337 8 24.6338 8 20C8 15.3663 8.68315 12.3663 10.5247 10.5247C12.3663 8.68315 15.3663 8 20 8C24.6338 8 27.6337 8.68315 29.4753 10.5247C31.3169 12.3663 32 15.3663 32 20C32 24.6338 31.3169 27.6337 29.4753 29.4753C27.6337 31.3169 24.6338 32 20 32C15.3663 32 12.3663 31.3169 10.5247 29.4753Z" fill="white"/>
<path d="M21.1336 12.75H14.625V27.25H18.5162C18.6022 27.2501 18.6873 27.2333 18.7668 27.2004C18.8462 27.1676 18.9184 27.1194 18.9792 27.0586C19.04 26.9978 19.0882 26.9256 19.121 26.8462C19.1539 26.7667 19.1707 26.6816 19.1706 26.5956V23.8112H20.145C24.9064 23.8112 26.8556 21.1312 26.8556 17.9917C26.8487 14.1144 23.9042 12.75 21.1336 12.75Z" fill="url(#paint0_linear_109_1575)"/>
<path d="M39.7486 14.5V8.31818H40.4972V13.8359H43.3707V14.5H39.7486ZM44.4332 14.5V9.86364H45.1456V14.5H44.4332ZM44.7955 9.09091C44.6566 9.09091 44.5369 9.04362 44.4363 8.94904C44.3377 8.85446 44.2884 8.74077 44.2884 8.60795C44.2884 8.47514 44.3377 8.36145 44.4363 8.26687C44.5369 8.17229 44.6566 8.125 44.7955 8.125C44.9343 8.125 45.053 8.17229 45.1516 8.26687C45.2522 8.36145 45.3026 8.47514 45.3026 8.60795C45.3026 8.74077 45.2522 8.85446 45.1516 8.94904C45.053 9.04362 44.9343 9.09091 44.7955 9.09091ZM49.7344 10.902L49.0945 11.0831C49.0543 10.9764 48.9949 10.8728 48.9164 10.7722C48.8399 10.6696 48.7353 10.585 48.6025 10.5186C48.4697 10.4522 48.2996 10.419 48.0924 10.419C47.8086 10.419 47.5722 10.4844 47.383 10.6152C47.1959 10.744 47.1023 10.908 47.1023 11.1072C47.1023 11.2843 47.1667 11.4242 47.2955 11.5268C47.4243 11.6294 47.6255 11.715 47.8992 11.7834L48.5874 11.9524C49.0019 12.053 49.3108 12.207 49.5141 12.4142C49.7173 12.6195 49.8189 12.8841 49.8189 13.2081C49.8189 13.4737 49.7425 13.7112 49.5895 13.9205C49.4386 14.1297 49.2273 14.2947 48.9557 14.4155C48.684 14.5362 48.3681 14.5966 48.0079 14.5966C47.535 14.5966 47.1436 14.494 46.8337 14.2887C46.5238 14.0835 46.3276 13.7836 46.2451 13.3892L46.9212 13.2202C46.9856 13.4697 47.1073 13.6568 47.2864 13.7816C47.4676 13.9064 47.704 13.9688 47.9958 13.9688C48.3278 13.9688 48.5914 13.8983 48.7866 13.7575C48.9838 13.6146 49.0824 13.4435 49.0824 13.2443C49.0824 13.0833 49.0261 12.9485 48.9134 12.8398C48.8007 12.7292 48.6276 12.6467 48.3942 12.5923L47.6215 12.4112C47.1969 12.3106 46.885 12.1547 46.6858 11.9434C46.4886 11.7301 46.39 11.4634 46.39 11.1435C46.39 10.8819 46.4634 10.6504 46.6103 10.4492C46.7592 10.248 46.9615 10.09 47.217 9.97532C47.4746 9.86062 47.7664 9.80327 48.0924 9.80327C48.5512 9.80327 48.9114 9.90388 49.173 10.1051C49.4366 10.3063 49.6237 10.572 49.7344 10.902ZM52.9076 9.86364V10.4673H50.5049V9.86364H52.9076ZM51.2052 8.75284H51.9175V13.1719C51.9175 13.3731 51.9467 13.524 52.0051 13.6246C52.0654 13.7232 52.1419 13.7897 52.2345 13.8239C52.329 13.8561 52.4287 13.8722 52.5333 13.8722C52.6118 13.8722 52.6762 13.8681 52.7265 13.8601C52.7768 13.85 52.817 13.842 52.8472 13.8359L52.9921 14.4759C52.9438 14.494 52.8764 14.5121 52.7899 14.5302C52.7033 14.5503 52.5937 14.5604 52.4608 14.5604C52.2596 14.5604 52.0624 14.5171 51.8692 14.4306C51.6781 14.344 51.5191 14.2122 51.3923 14.0352C51.2675 13.8581 51.2052 13.6347 51.2052 13.3651V8.75284ZM55.8732 14.5966C55.4265 14.5966 55.0411 14.498 54.7172 14.3008C54.3952 14.1016 54.1467 13.8239 53.9716 13.4677C53.7985 13.1095 53.712 12.6929 53.712 12.218C53.712 11.7431 53.7985 11.3246 53.9716 10.9624C54.1467 10.5981 54.3902 10.3144 54.7021 10.1112C55.016 9.90589 55.3822 9.80327 55.8008 9.80327C56.0423 9.80327 56.2807 9.84351 56.5162 9.92401C56.7516 10.0045 56.9659 10.1353 57.1591 10.3164C57.3523 10.4955 57.5062 10.733 57.6209 11.0288C57.7356 11.3246 57.793 11.6888 57.793 12.1214V12.4233H54.2191V11.8075H57.0685C57.0685 11.5459 57.0162 11.3125 56.9116 11.1072C56.8089 10.902 56.6621 10.74 56.4709 10.6213C56.2817 10.5025 56.0584 10.4432 55.8008 10.4432C55.517 10.4432 55.2715 10.5136 55.0643 10.6545C54.859 10.7933 54.7011 10.9744 54.5904 11.1978C54.4797 11.4212 54.4244 11.6606 54.4244 11.9162V12.3267C54.4244 12.6768 54.4847 12.9737 54.6055 13.2172C54.7282 13.4586 54.8983 13.6428 55.1156 13.7695C55.3329 13.8943 55.5855 13.9567 55.8732 13.9567C56.0604 13.9567 56.2294 13.9305 56.3803 13.8782C56.5333 13.8239 56.6651 13.7434 56.7757 13.6367C56.8864 13.5281 56.9719 13.3932 57.0323 13.2322L57.7205 13.4254C57.6481 13.6589 57.5263 13.8641 57.3553 14.0412C57.1842 14.2163 56.973 14.3531 56.7214 14.4517C56.4699 14.5483 56.1871 14.5966 55.8732 14.5966ZM59.589 11.7109V14.5H58.8766V9.86364H59.5648V10.5881H59.6252C59.7338 10.3526 59.8989 10.1635 60.1202 10.0206C60.3416 9.87571 60.6273 9.80327 60.9775 9.80327C61.2914 9.80327 61.5661 9.86766 61.8015 9.99645C62.0369 10.1232 62.2201 10.3164 62.3509 10.576C62.4817 10.8336 62.5471 11.1596 62.5471 11.554V14.5H61.8347V11.6023C61.8347 11.238 61.7401 10.9543 61.551 10.7511C61.3618 10.5458 61.1022 10.4432 60.7722 10.4432C60.5448 10.4432 60.3416 10.4925 60.1625 10.5911C59.9854 10.6897 59.8455 10.8336 59.7429 11.0227C59.6403 11.2119 59.589 11.4413 59.589 11.7109ZM68.1229 14.5966C67.7044 14.5966 67.3371 14.497 67.0212 14.2978C66.7073 14.0985 66.4618 13.8198 66.2847 13.4616C66.1096 13.1035 66.0221 12.6849 66.0221 12.206C66.0221 11.723 66.1096 11.3014 66.2847 10.9412C66.4618 10.581 66.7073 10.3013 67.0212 10.1021C67.3371 9.90288 67.7044 9.80327 68.1229 9.80327C68.5415 9.80327 68.9077 9.90288 69.2216 10.1021C69.5376 10.3013 69.7831 10.581 69.9581 10.9412C70.1352 11.3014 70.2238 11.723 70.2238 12.206C70.2238 12.6849 70.1352 13.1035 69.9581 13.4616C69.7831 13.8198 69.5376 14.0985 69.2216 14.2978C68.9077 14.497 68.5415 14.5966 68.1229 14.5966ZM68.1229 13.9567C68.4409 13.9567 68.7025 13.8752 68.9077 13.7122C69.113 13.5492 69.2649 13.3349 69.3635 13.0692C69.4621 12.8036 69.5114 12.5159 69.5114 12.206C69.5114 11.8961 69.4621 11.6073 69.3635 11.3397C69.2649 11.072 69.113 10.8557 68.9077 10.6907C68.7025 10.5257 68.4409 10.4432 68.1229 10.4432C67.805 10.4432 67.5434 10.5257 67.3381 10.6907C67.1329 10.8557 66.9809 11.072 66.8823 11.3397C66.7837 11.6073 66.7344 11.8961 66.7344 12.206C66.7344 12.5159 66.7837 12.8036 66.8823 13.0692C66.9809 13.3349 67.1329 13.5492 67.3381 13.7122C67.5434 13.8752 67.805 13.9567 68.1229 13.9567ZM72.0235 11.7109V14.5H71.3112V9.86364H71.9994V10.5881H72.0597C72.1684 10.3526 72.3334 10.1635 72.5548 10.0206C72.7761 9.87571 73.0619 9.80327 73.412 9.80327C73.7259 9.80327 74.0006 9.86766 74.2361 9.99645C74.4715 10.1232 74.6546 10.3164 74.7854 10.576C74.9162 10.8336 74.9816 11.1596 74.9816 11.554V14.5H74.2693V11.6023C74.2693 11.238 74.1747 10.9543 73.9855 10.7511C73.7964 10.5458 73.5368 10.4432 73.2068 10.4432C72.9794 10.4432 72.7761 10.4925 72.597 10.5911C72.42 10.6897 72.2801 10.8336 72.1775 11.0227C72.0748 11.2119 72.0235 11.4413 72.0235 11.7109Z" fill="black"/>
<path d="M39.5412 30.5V17.7727H43.8416C44.8401 17.7727 45.6563 17.9529 46.2901 18.3134C46.9281 18.6697 47.4005 19.1523 47.707 19.7614C48.0136 20.3704 48.1669 21.0498 48.1669 21.7997C48.1669 22.5496 48.0136 23.2311 47.707 23.8443C47.4046 24.4574 46.9364 24.9463 46.3026 25.3109C45.6687 25.6713 44.8567 25.8516 43.8665 25.8516H40.7841V24.4844H43.8168C44.5004 24.4844 45.0493 24.3663 45.4636 24.1301C45.8779 23.894 46.1783 23.575 46.3647 23.1731C46.5553 22.7671 46.6506 22.3093 46.6506 21.7997C46.6506 21.2901 46.5553 20.8344 46.3647 20.4325C46.1783 20.0307 45.8758 19.7158 45.4574 19.4879C45.0389 19.2559 44.4838 19.1399 43.7919 19.1399H41.0824V30.5H39.5412ZM53.0097 30.7237C52.4048 30.7237 51.8559 30.6098 51.3628 30.3819C50.8698 30.1499 50.4783 29.8164 50.1883 29.3814C49.8983 28.9422 49.7533 28.4119 49.7533 27.7905C49.7533 27.2436 49.861 26.8003 50.0764 26.4606C50.2919 26.1167 50.5798 25.8474 50.9403 25.6527C51.3007 25.458 51.6984 25.313 52.1334 25.2177C52.5726 25.1183 53.0138 25.0395 53.4571 24.9815C54.0371 24.907 54.5074 24.851 54.8678 24.8137C55.2324 24.7723 55.4975 24.704 55.6633 24.6087C55.8331 24.5134 55.9181 24.3477 55.9181 24.1115V24.0618C55.9181 23.4486 55.7503 22.9722 55.4147 22.6325C55.0832 22.2927 54.5799 22.1229 53.9046 22.1229C53.2044 22.1229 52.6555 22.2762 52.2577 22.5827C51.86 22.8893 51.5803 23.2166 51.4188 23.5646L50.0267 23.0675C50.2753 22.4875 50.6067 22.0359 51.021 21.7127C51.4395 21.3854 51.8952 21.1576 52.3882 21.0291C52.8854 20.8965 53.3743 20.8303 53.8548 20.8303C54.1614 20.8303 54.5136 20.8675 54.9113 20.9421C55.3132 21.0125 55.7006 21.1596 56.0734 21.3833C56.4504 21.6071 56.7632 21.9447 57.0118 22.3963C57.2604 22.8479 57.3847 23.4528 57.3847 24.2109V30.5H55.9181V29.2074H55.8435C55.7441 29.4145 55.5783 29.6362 55.3463 29.8723C55.1143 30.1085 54.8057 30.3094 54.4204 30.4751C54.0351 30.6409 53.5648 30.7237 53.0097 30.7237ZM53.2334 29.4062C53.8134 29.4062 54.3023 29.2923 54.7 29.0645C55.1019 28.8366 55.4043 28.5424 55.6073 28.182C55.8145 27.8216 55.9181 27.4425 55.9181 27.0447V25.7024C55.8559 25.777 55.7192 25.8453 55.5079 25.9075C55.3008 25.9655 55.0605 26.0173 54.787 26.0629C54.5177 26.1043 54.2546 26.1416 53.9978 26.1747C53.7451 26.2037 53.54 26.2286 53.3825 26.2493C53.0014 26.299 52.6451 26.3798 52.3137 26.4917C51.9864 26.5994 51.7212 26.763 51.5182 26.9826C51.3193 27.198 51.2199 27.4922 51.2199 27.8651C51.2199 28.3746 51.4084 28.7599 51.7854 29.021C52.1666 29.2778 52.6492 29.4062 53.2334 29.4062ZM61.2782 24.7578V30.5H59.8116V20.9545H61.2285V22.446H61.3528C61.5765 21.9613 61.9162 21.5719 62.3719 21.2777C62.8277 20.9794 63.416 20.8303 64.1369 20.8303C64.7832 20.8303 65.3487 20.9628 65.8334 21.228C66.3181 21.489 66.6951 21.8867 66.9644 22.4212C67.2337 22.9515 67.3684 23.6226 67.3684 24.4347V30.5H65.9018V24.5341C65.9018 23.7842 65.707 23.2 65.3176 22.7816C64.9282 22.359 64.3937 22.1477 63.7143 22.1477C63.2461 22.1477 62.8277 22.2492 62.4589 22.4522C62.0944 22.6552 61.8064 22.9515 61.5951 23.3409C61.3838 23.7303 61.2782 24.2027 61.2782 24.7578ZM73.4028 30.6989C72.6073 30.6989 71.9051 30.4979 71.2961 30.0961C70.6871 29.69 70.2106 29.1183 69.8667 28.3809C69.5229 27.6393 69.3509 26.763 69.3509 25.7521C69.3509 24.7495 69.5229 23.8795 69.8667 23.142C70.2106 22.4046 70.6891 21.8349 71.3023 21.4331C71.9155 21.0312 72.6239 20.8303 73.4276 20.8303C74.0491 20.8303 74.54 20.9338 74.9005 21.141C75.2651 21.344 75.5426 21.576 75.7332 21.837C75.9279 22.0939 76.0792 22.3052 76.1869 22.4709H76.3112V17.7727H77.7778V30.5H76.3609V29.0334H76.1869C76.0792 29.2074 75.9259 29.427 75.727 29.6921C75.5281 29.9531 75.2443 30.1872 74.8756 30.3944C74.5069 30.5974 74.016 30.6989 73.4028 30.6989ZM73.6017 29.3814C74.19 29.3814 74.6871 29.2281 75.0931 28.9215C75.4991 28.6108 75.8078 28.182 76.0191 27.6351C76.2304 27.0841 76.336 26.4482 76.336 25.7273C76.336 25.0147 76.2325 24.3912 76.0253 23.8567C75.8182 23.3181 75.5116 22.8997 75.1056 22.6014C74.6995 22.2989 74.1982 22.1477 73.6017 22.1477C72.9802 22.1477 72.4623 22.3072 72.048 22.6262C71.6379 22.9411 71.3292 23.3699 71.1221 23.9126C70.9191 24.4512 70.8176 25.0561 70.8176 25.7273C70.8176 26.4067 70.9211 27.024 71.1283 27.5792C71.3396 28.1302 71.6503 28.5694 72.0605 28.8967C72.4748 29.2198 72.9885 29.3814 73.6017 29.3814ZM84.2954 30.6989C83.4336 30.6989 82.6775 30.4938 82.0271 30.0836C81.3808 29.6735 80.8753 29.0997 80.5107 28.3622C80.1503 27.6248 79.9701 26.763 79.9701 25.777C79.9701 24.7827 80.1503 23.9147 80.5107 23.1731C80.8753 22.4315 81.3808 21.8556 82.0271 21.4455C82.6775 21.0353 83.4336 20.8303 84.2954 20.8303C85.1571 20.8303 85.9111 21.0353 86.5574 21.4455C87.2079 21.8556 87.7133 22.4315 88.0738 23.1731C88.4384 23.9147 88.6207 24.7827 88.6207 25.777C88.6207 26.763 88.4384 27.6248 88.0738 28.3622C87.7133 29.0997 87.2079 29.6735 86.5574 30.0836C85.9111 30.4938 85.1571 30.6989 84.2954 30.6989ZM84.2954 29.3814C84.95 29.3814 85.4885 29.2136 85.9111 28.878C86.3337 28.5424 86.6465 28.1012 86.8495 27.5543C87.0525 27.0075 87.154 26.415 87.154 25.777C87.154 25.139 87.0525 24.5444 86.8495 23.9934C86.6465 23.4424 86.3337 22.997 85.9111 22.6573C85.4885 22.3176 84.95 22.1477 84.2954 22.1477C83.6408 22.1477 83.1022 22.3176 82.6796 22.6573C82.257 22.997 81.9442 23.4424 81.7412 23.9934C81.5382 24.5444 81.4367 25.139 81.4367 25.777C81.4367 26.415 81.5382 27.0075 81.7412 27.5543C81.9442 28.1012 82.257 28.5424 82.6796 28.878C83.1022 29.2136 83.6408 29.3814 84.2954 29.3814ZM90.6094 30.5V20.9545H92.0263V22.3963H92.1258C92.2998 21.924 92.6146 21.5408 93.0704 21.2466C93.5261 20.9525 94.0398 20.8054 94.6116 20.8054C94.7193 20.8054 94.8539 20.8075 95.0155 20.8116C95.1771 20.8158 95.2993 20.822 95.3821 20.8303V22.3217C95.3324 22.3093 95.2185 22.2907 95.0404 22.2658C94.8663 22.2368 94.682 22.2223 94.4873 22.2223C94.0232 22.2223 93.6089 22.3197 93.2444 22.5144C92.8839 22.705 92.5981 22.9701 92.3868 23.3098C92.1796 23.6454 92.076 24.0286 92.076 24.4595V30.5H90.6094ZM99.6796 30.7237C99.0747 30.7237 98.5258 30.6098 98.0328 30.3819C97.5397 30.1499 97.1482 29.8164 96.8582 29.3814C96.5682 28.9422 96.4232 28.4119 96.4232 27.7905C96.4232 27.2436 96.5309 26.8003 96.7464 26.4606C96.9618 26.1167 97.2497 25.8474 97.6102 25.6527C97.9706 25.458 98.3683 25.313 98.8034 25.2177C99.2425 25.1183 99.6837 25.0395 100.127 24.9815C100.707 24.907 101.177 24.851 101.538 24.8137C101.902 24.7723 102.167 24.704 102.333 24.6087C102.503 24.5134 102.588 24.3477 102.588 24.1115V24.0618C102.588 23.4486 102.42 22.9722 102.085 22.6325C101.753 22.2927 101.25 22.1229 100.574 22.1229C99.8743 22.1229 99.3254 22.2762 98.9276 22.5827C98.5299 22.8893 98.2503 23.2166 98.0887 23.5646L96.6966 23.0675C96.9452 22.4875 97.2767 22.0359 97.691 21.7127C98.1094 21.3854 98.5651 21.1576 99.0581 21.0291C99.5553 20.8965 100.044 20.8303 100.525 20.8303C100.831 20.8303 101.184 20.8675 101.581 20.9421C101.983 21.0125 102.37 21.1596 102.743 21.3833C103.12 21.6071 103.433 21.9447 103.682 22.3963C103.93 22.8479 104.055 23.4528 104.055 24.2109V30.5H102.588V29.2074H102.513C102.414 29.4145 102.248 29.6362 102.016 29.8723C101.784 30.1085 101.476 30.3094 101.09 30.4751C100.705 30.6409 100.235 30.7237 99.6796 30.7237ZM99.9033 29.4062C100.483 29.4062 100.972 29.2923 101.37 29.0645C101.772 28.8366 102.074 28.5424 102.277 28.182C102.484 27.8216 102.588 27.4425 102.588 27.0447V25.7024C102.526 25.777 102.389 25.8453 102.178 25.9075C101.971 25.9655 101.73 26.0173 101.457 26.0629C101.188 26.1043 100.925 26.1416 100.668 26.1747C100.415 26.2037 100.21 26.2286 100.052 26.2493C99.6713 26.299 99.315 26.3798 98.9836 26.4917C98.6563 26.5994 98.3911 26.763 98.1881 26.9826C97.9893 27.198 97.8898 27.4922 97.8898 27.8651C97.8898 28.3746 98.0783 28.7599 98.4553 29.021C98.8365 29.2778 99.3192 29.4062 99.9033 29.4062Z" fill="black"/>
<rect x="0.5" y="0.5" width="115" height="39" rx="4.5" stroke="#A6A6A6"/>
<defs>
<linearGradient id="paint0_linear_109_1575" x1="11.9892" y1="24.1087" x2="24.7455" y2="13.4049" gradientUnits="userSpaceOnUse">
<stop stop-color="#00A3F1"/>
<stop offset="0.44" stop-color="#0090F8"/>
<stop offset="1" stop-color="#006EFF"/>
</linearGradient>
</defs>
</svg>

<svg xmlns="http://www.w3.org/2000/svg" width="116" height="40" fill="none" viewBox="0 0 116 40">
  <rect width="115" height="39" x=".5" y=".5" fill="#fff" rx="4.5"/>
  <rect width="115" height="39" x=".5" y=".5" stroke="#A6A6A6" rx="4.5"/>
  <path fill="url(#a)" d="M21.391 8H10.618v24h6.441a1.08 1.08 0 0 0 1.083-1.083v-4.609h1.613c7.88 0 11.107-4.436 11.107-9.632C30.851 10.258 25.977 8 21.392 8Z"/>
  <path fill="#000" d="M39.749 14.5V8.318h.748v5.518h2.874v.664h-3.622Zm4.684 0V9.864h.713V14.5h-.713Zm.362-5.41a.506.506 0 0 1-.359-.141.456.456 0 0 1-.148-.341c0-.133.05-.247.148-.341.1-.095.22-.142.36-.142.138 0 .257.047.356.142.1.094.15.208.15.341 0 .133-.05.246-.15.341a.496.496 0 0 1-.357.142Zm4.94 1.812-.64.181c-.04-.107-.1-.21-.179-.31a.865.865 0 0 0-.313-.254 1.14 1.14 0 0 0-.51-.1c-.284 0-.52.065-.71.196-.187.129-.28.293-.28.492a.51.51 0 0 0 .192.42c.13.102.33.188.604.256l.688.17c.415.1.724.254.927.461.203.206.305.47.305.794 0 .266-.077.503-.23.713-.15.209-.362.374-.633.495a2.33 2.33 0 0 1-.948.18c-.473 0-.864-.102-1.174-.307-.31-.205-.506-.505-.589-.9l.676-.169c.065.25.186.437.365.562.182.124.418.187.71.187.332 0 .595-.07.79-.211.198-.143.296-.314.296-.514a.54.54 0 0 0-.169-.404c-.112-.11-.285-.193-.519-.248l-.773-.18c-.424-.101-.736-.257-.935-.469a1.133 1.133 0 0 1-.296-.8c0-.261.073-.493.22-.694a1.5 1.5 0 0 1 .607-.474 2.13 2.13 0 0 1 .875-.172c.46 0 .82.1 1.081.302.264.201.45.467.561.797Zm3.173-1.038v.603h-2.403v-.603h2.403Zm-1.703-1.111h.712v4.419c0 .201.03.352.088.453.06.098.137.165.23.199a.92.92 0 0 0 .298.048c.079 0 .143-.004.194-.012l.12-.024.145.64a1.491 1.491 0 0 1-.531.085c-.201 0-.399-.044-.592-.13a1.177 1.177 0 0 1-.477-.396c-.125-.177-.187-.4-.187-.67V8.753Zm4.668 5.844c-.447 0-.832-.099-1.156-.296a1.99 1.99 0 0 1-.745-.833c-.174-.358-.26-.775-.26-1.25s.086-.893.26-1.256c.175-.364.418-.648.73-.85.314-.206.68-.309 1.099-.309.241 0 .48.04.715.121.236.08.45.211.643.392.193.18.347.417.462.713.115.296.172.66.172 1.092v.302h-3.574v-.616h2.85a1.52 1.52 0 0 0-.157-.7 1.183 1.183 0 0 0-.441-.486 1.234 1.234 0 0 0-.67-.178c-.284 0-.53.07-.737.212a1.39 1.39 0 0 0-.474.543c-.11.223-.166.463-.166.718v.41c0 .35.06.648.181.891.123.242.293.426.51.553.218.124.47.187.758.187.187 0 .356-.027.507-.079.153-.054.285-.135.396-.241.11-.109.196-.244.256-.405l.689.193a1.526 1.526 0 0 1-.366.616 1.78 1.78 0 0 1-.634.41 2.35 2.35 0 0 1-.848.146Zm3.716-2.886V14.5h-.712V9.864h.688v.724h.06a1.33 1.33 0 0 1 .495-.567c.222-.145.507-.218.858-.218.313 0 .588.065.823.193.236.127.42.32.55.58.13.258.196.584.196.978V14.5h-.712v-2.898c0-.364-.095-.648-.284-.85-.19-.206-.449-.309-.779-.309-.227 0-.43.05-.61.148a1.058 1.058 0 0 0-.42.432 1.43 1.43 0 0 0-.153.688Zm8.534 2.886c-.419 0-.786-.1-1.102-.3a2.018 2.018 0 0 1-.736-.835c-.175-.358-.263-.777-.263-1.256 0-.483.088-.905.263-1.265.177-.36.422-.64.736-.839.316-.2.683-.299 1.102-.299.418 0 .785.1 1.099.3.316.198.561.478.736.838.177.36.266.782.266 1.265 0 .479-.089.898-.266 1.256-.175.358-.42.636-.736.836a2.01 2.01 0 0 1-1.1.299Zm0-.64c.318 0 .58-.082.785-.245a1.44 1.44 0 0 0 .456-.643 2.47 2.47 0 0 0 .147-.863c0-.31-.049-.599-.147-.866a1.46 1.46 0 0 0-.456-.65c-.206-.164-.467-.247-.785-.247s-.58.083-.785.248a1.46 1.46 0 0 0-.456.649 2.487 2.487 0 0 0-.148.866c0 .31.05.598.148.863.099.266.25.48.456.643.205.163.467.245.785.245Zm3.9-2.246V14.5h-.712V9.864H72v.724h.06c.11-.235.274-.424.496-.567.221-.145.507-.218.857-.218.314 0 .589.065.824.193a1.3 1.3 0 0 1 .55.58c.13.258.196.584.196.978V14.5h-.713v-2.898c0-.364-.094-.648-.284-.85-.189-.206-.448-.309-.778-.309-.228 0-.43.05-.61.148a1.059 1.059 0 0 0-.42.432 1.43 1.43 0 0 0-.154.688ZM39.541 30.5V17.773h4.3c1 0 1.815.18 2.45.54.637.357 1.11.84 1.416 1.448.307.61.46 1.289.46 2.039 0 .75-.153 1.431-.46 2.044-.302.613-.77 1.102-1.404 1.467-.634.36-1.446.54-2.436.54h-3.083v-1.367h3.033c.683 0 1.232-.118 1.647-.354.414-.236.714-.555.9-.957.191-.406.287-.864.287-1.373 0-.51-.096-.966-.286-1.367a2.04 2.04 0 0 0-.908-.945c-.418-.232-.973-.348-1.665-.348h-2.71V30.5h-1.54Zm13.469.224a3.879 3.879 0 0 1-1.647-.342 2.826 2.826 0 0 1-1.175-1c-.29-.44-.435-.97-.435-1.591 0-.547.108-.99.323-1.33a2.28 2.28 0 0 1 .864-.808 4.54 4.54 0 0 1 1.193-.435c.44-.1.88-.178 1.324-.236a56.63 56.63 0 0 1 1.41-.168c.365-.042.63-.11.796-.205.17-.096.255-.261.255-.498v-.05c0-.612-.168-1.089-.503-1.428-.332-.34-.835-.51-1.51-.51-.7 0-1.25.153-1.647.46-.398.306-.678.634-.84.982l-1.391-.498c.248-.58.58-1.031.994-1.354a3.728 3.728 0 0 1 1.367-.684 5.676 5.676 0 0 1 1.467-.199c.306 0 .659.038 1.056.112.402.07.79.218 1.162.441.377.224.69.562.939 1.013.248.452.373 1.057.373 1.815V30.5h-1.467v-1.293h-.075c-.099.207-.265.43-.497.665-.232.236-.54.437-.926.603-.385.166-.855.249-1.41.249Zm.223-1.318c.58 0 1.07-.114 1.467-.341a2.327 2.327 0 0 0 1.218-2.02v-1.343c-.062.075-.199.143-.41.205a6.92 6.92 0 0 1-.721.156 32.755 32.755 0 0 1-1.404.186c-.382.05-.738.13-1.07.243a1.842 1.842 0 0 0-.795.49c-.199.216-.298.51-.298.883 0 .51.188.895.565 1.156.382.257.864.385 1.448.385Zm8.045-4.648V30.5h-1.466v-9.546h1.416v1.492h.125a2.726 2.726 0 0 1 1.019-1.168c.456-.299 1.044-.448 1.765-.448.646 0 1.212.133 1.696.398.485.261.862.659 1.131 1.193.27.53.404 1.202.404 2.014V30.5h-1.466v-5.966c0-.75-.195-1.334-.584-1.752-.39-.423-.924-.634-1.604-.634a2.56 2.56 0 0 0-1.255.304 2.18 2.18 0 0 0-.864.889c-.211.39-.317.862-.317 1.417Zm12.125 5.94c-.796 0-1.498-.2-2.107-.602-.609-.406-1.085-.978-1.43-1.715-.343-.742-.515-1.618-.515-2.629 0-1.002.172-1.872.516-2.61.344-.737.822-1.307 1.435-1.709.613-.402 1.322-.603 2.126-.603.621 0 1.112.104 1.472.311.365.203.643.435.833.696.195.257.346.468.454.634h.124v-4.698h1.467V30.5H76.36v-1.467h-.174a9.38 9.38 0 0 1-.46.66c-.199.26-.483.494-.851.701-.37.203-.86.305-1.473.305Zm.199-1.317c.588 0 1.085-.153 1.491-.46.406-.31.715-.739.926-1.286.211-.55.317-1.187.317-1.908 0-.712-.103-1.336-.31-1.87-.208-.539-.514-.957-.92-1.256-.406-.302-.908-.453-1.504-.453-.622 0-1.14.16-1.554.478-.41.315-.719.744-.926 1.287-.203.538-.304 1.143-.304 1.814 0 .68.103 1.297.31 1.852.212.551.522.99.933 1.318.414.323.927.484 1.54.484ZM84.295 30.7c-.861 0-1.618-.205-2.268-.615-.646-.41-1.152-.984-1.516-1.722-.36-.737-.54-1.599-.54-2.585 0-.994.18-1.862.54-2.604.364-.741.87-1.317 1.516-1.727.65-.41 1.407-.616 2.268-.616.862 0 1.616.205 2.262.616.65.41 1.156.985 1.517 1.727.364.742.547 1.61.547 2.604 0 .986-.183 1.848-.547 2.585-.36.738-.866 1.312-1.517 1.722-.646.41-1.4.615-2.262.615Zm0-1.318c.655 0 1.194-.167 1.616-.503.423-.336.736-.777.939-1.324a5.063 5.063 0 0 0 .304-1.777 5.12 5.12 0 0 0-.304-1.784 3.006 3.006 0 0 0-.939-1.336c-.422-.34-.961-.51-1.616-.51-.654 0-1.193.17-1.615.51-.423.34-.736.785-.939 1.336a5.12 5.12 0 0 0-.304 1.784c0 .638.101 1.23.304 1.777.203.547.516.988.939 1.324.422.336.96.503 1.615.503ZM90.61 30.5v-9.546h1.417v1.442h.1c.174-.472.489-.855.944-1.15a2.78 2.78 0 0 1 1.542-.44c.107 0 .242.002.404.006.161.004.283.01.366.018v1.492a4.392 4.392 0 0 0-.342-.056 3.365 3.365 0 0 0-.553-.044c-.464 0-.878.098-1.243.292-.36.191-.646.456-.857.796a2.145 2.145 0 0 0-.311 1.15v6.04H90.61Zm9.07.224a3.878 3.878 0 0 1-1.646-.342 2.826 2.826 0 0 1-1.175-1c-.29-.44-.435-.97-.435-1.591 0-.547.108-.99.323-1.33a2.28 2.28 0 0 1 .864-.808 4.54 4.54 0 0 1 1.193-.435c.44-.1.88-.178 1.324-.236.58-.075 1.05-.131 1.411-.168.364-.042.629-.11.795-.205.17-.096.255-.261.255-.498v-.05c0-.612-.168-1.089-.503-1.428-.332-.34-.835-.51-1.511-.51-.7 0-1.249.153-1.646.46-.398.306-.678.634-.84.982l-1.391-.498c.248-.58.58-1.031.994-1.354a3.727 3.727 0 0 1 1.367-.684 5.675 5.675 0 0 1 1.467-.199c.306 0 .659.038 1.056.112.402.07.789.218 1.162.441.377.224.69.562.939 1.013.248.452.373 1.057.373 1.815V30.5h-1.467v-1.293h-.075a2.57 2.57 0 0 1-.497.665c-.232.236-.54.437-.926.603-.385.166-.855.249-1.41.249Zm.224-1.318c.58 0 1.069-.114 1.467-.341a2.326 2.326 0 0 0 1.218-2.02v-1.343c-.062.075-.199.143-.41.205-.207.058-.448.11-.721.156a32.39 32.39 0 0 1-1.405.186 5.6 5.6 0 0 0-1.068.243 1.842 1.842 0 0 0-.796.49c-.199.216-.298.51-.298.883 0 .51.188.895.565 1.156.382.257.864.385 1.448.385Z"/>
  <defs>
    <linearGradient id="a" x1="6.256" x2="27.37" y1="26.801" y2="9.084" gradientUnits="userSpaceOnUse">
      <stop stop-color="#00A3F1"/>
      <stop offset=".44" stop-color="#0090F8"/>
      <stop offset="1" stop-color="#006EFF"/>
    </linearGradient>
  </defs>
</svg>
